!!!!SEGMENT: pl-kk--kk-i-6--019_anonim--alleluia-ave-maria.krn
!!!cenid: 16xx:974
!!!COM: Anonim
!!!COM-rismID: pe30004985
!!!CDT:
!!!CNT:
!!!OTL: Alleluia Ave Maria
!!!PDT:
!!!AGN: Sacred
!!!YEC: Copyright 2022 Narodowy Instytut Fryderyka Chopina (https://polishscores.org)
!!!YEM: License CC-BY-4.0 (https://creativecommons.org/licenses/by/4.0)
!!!SMS-siglum: PL-Kk
!!!SMS-shelfmark: Kk.I.6
!!!SMS-shelfwork: 019 W
!!!SMS-variant:
!!!SMS-altvar:
!!!NIFC-rismSourceID: 1001135513
!!!NIFC-rismChildID: 1001135803
!!!NIFC-islandoraID: pl-kk:1634
!!!URL-pdf-islandora: https://repozytorium.nifc.pl/islandora/object/pl-kk%3A1634/datastream/PDF/view
!!!URL-scan: https://polish.musicsources.pl/pl/lokalizacje/galeria/rekopisy/6133 @EN{Scan on Polish Music Sources Website} @PL{Skany w portalu Dziedzictwo Muzyki Polskiej w otwartym dostępie}
!!!IIIF:
!!!ONB-nifc: UWAGA: C (skan 0014, s. 24-25), T (skan 0116-0117, s. 37-38), B (skan 0227-0228, s. 35-36) Następny utwór: Sub tuum praesidium
!!!AIN: 1 empty 1 tenor 1 vox
!!!key:
**kern	**text	**kern	**text	**kern	**text
*part3	*	*part2	*	*part1	*
*staff3	*	*staff2	*	*staff1	*
*Iempty	*	*Itenor	*	*Ivox	*
*I"Baſsus	*	*I"Tenor.	*	*I"Cantus.	*
*I'B	*	*I'T	*	*I'S	*
*clefF4	*	*clefC4	*	*clefC4	*
*k[]	*	*k[]	*	*k[]	*
*C:	*	*C:	*	*C:	*
*M2/1	*	*M2/1	*	*M2/1	*
*met(C|)	*	*met(C|)	*	*met(C|)	*
=1-	=1-	=1-	=1-	=1-	=1-
!LO:TX:a:B:t=A festo S(ancti)S(i)mae Trinitatis Vsq(ue) \nad D(omi)nicam I. Ad(ve)nt(us)	!	!LO:TX:a:B:t=A festo S(ancti)S(i)mae Trinitatis \nusq(ue) ad D(omi)nicam I. Ad(ve)nt(us).	!	!LO:TX:a:B:t=À festo S(ancti)s(i)mae Trinitatis \nusq(ue) ad D(omi)nicam I. Ad(ve)nt(us).	!
1G	Al-	1r	.	1G	Al-
*lig	*	*	*	*lig	*
1C	-le-	1c	Al-	1E	-le-
=2-	=2-	=2-	=2-	=2-	=2-
1D	.	1A	-le-	1F	.
*Xlig	*	*	*	*Xlig	*
*	*	*	*	*lig	*
2GG/	-lu-	2B\	.	1G	.
2BB/	.	1G/	-lu-	.	.
=3-	=3-	=3-	=3-	=3-	=3-
1AA	.	.	.	1A	.
.	.	4F/	.	.	.
.	.	4E/	.	.	.
*	*	*	*	*Xlig	*
2GG/	-ia	1G	-ia	1B	.
*	*ij	*	*	*	*
2GG/	Al-	.	.	.	.
=4-	=4-	=4-	=4-	=4-	=4-
*	*	*	*ij	*lig	*
4C/	-le-	2.G/	Al-	1c	.
4D/	.	.	.	.	.
4E\	.	.	.	.	.
4F\	.	4A/	.	.	.
2G\	.	4B\	.	1B	.
.	.	4c\	.	.	.
2GG/	.	1d\	.	.	.
*	*	*	*	*Xlig	*
=5-	=5-	=5-	=5-	=5-	=5-
2D/	.	.	.	0A	-lu-
*custos:D	*	*	*	*	*
2C#X/	.	2e\	-le-	.	.
*	*	*custos:B	*	*	*
!LO:LB:g=original	!	!	!	!	!
1D	-lu-	1d	-lu-	.	.
!	!	!LO:LB:g=original	!	!	!
=6-	=6-	=6-	=6-	=6-	=6-
2GG/	-ia	2B\	-ia	[0Gl;;	-ia.
2.Cny/	Al-	1c	Al-	.	.
4D/	.	.	.	.	.
1E\	-le-	2.B\	-le-	.	.
=7-	=7-	=7-	=7-	=7-	=7-
.	.	.	.	0G_	.
.	.	4c\	.	.	.
2BB/	.	2d\	.	.	.
1C	-lu-	1e	-lu-	.	.
=8-	=8-	=8-	=8-	=8-	=8-
0GGl;	-ia	0dl;;	-ia	0G]	.
*	*Xij	*	*Xij	*	*
!	!	!	!	!LO:LB:g=original	!
=9-	=9-	=9-	=9-	=9-	=9-
*M2/1	*	*M2/1	*	*M2/1	*
*met(C|)	*	*met(C|)	*	*met(C|)	*
*lig	*	*	*	*	*
1GG	A-	1r	.	1G	A-
*	*	*	*	*lig	*
1C	.	1c	A-	1E	-ue
*Xlig	*	*	*	*	*
=10-	=10-	=10-	=10-	=10-	=10-
1D	.	1A	-ue	1F	.
*	*	*	*	*Xlig	*
!	!	!	!	!LO:TX:t=P:global:problem=cezura na 1. linii	!
2GG/	-ue	2B\	Ma-	1G,	.
4C/	Ma-	1c\	-ri-	.	.
*custos:E	*	*	*	*	*
4D/	.	.	.	.	.
!LO:LB:g=original	!	!	!	!	!
=11-	=11-	=11-	=11-	=11-	=11-
4E\	.	.	.	1G	Ma-
4F\	.	.	.	.	.
2.G\	.	4B\	.	.	.
.	.	4c\	.	.	.
*	*	*custos:d	*	*	*
.	.	1d	-a	1A	-ri-
4F\	.	.	.	.	.
2F\	.	.	.	.	.
!	!	!LO:LB:g=original	!	!	!
=12-	=12-	=12-	=12-	=12-	=12-
*	*	*	*ij	*lig	*
1G	-ri-	2r	.	1B	.
.	.	1d	A-	.	.
1D	-a	.	.	1A	.
.	.	2d\	-ue	.	.
*	*	*	*	*Xlig	*
=13-	=13-	=13-	=13-	=13-	=13-
*	*	*	*	*lig	*
2r	.	2d\	Ma-	1B	.
1G	A-	2d\	-ri-	.	.
.	.	1A	-a	1c	.
2F\	-ue	.	.	.	.
*	*	*	*Xij	*Xlig	*
=14-	=14-	=14-	=14-	=14-	=14-
*	*	*	*	*lig	*
1G	Ma-	2r	.	1B	.
.	.	1d	A-	.	.
1D	-ri-	.	.	1A	.
.	.	2d\	-ue	.	.
*	*	*	*	*Xlig	*
=15-	=15-	=15-	=15-	=15-	=15-
0GG	-a	2.d\	Ma-	1G,	-a
.	.	4c\	.	.	.
*	*	*	*	*lig	*
.	.	4B\	.	1G	gra-
.	.	4A/	.	.	.
.	.	2B\	-ri-	.	.
=16-	=16-	=16-	=16-	=16-	=16-
*	*	*	*	*custos:E	*
2rC	.	2.A/	-a	1F	.
1D	gra-	.	.	.	.
.	.	4F/	gra-	.	.
*	*	*	*	*Xlig	*
!	!	!	!	!LO:LB:g=original	!
*	*	*	*	*lig	*
.	.	2G/	-ti-	1E	.
2C/	-ti-	1A\	-a	.	.
=17-	=17-	=17-	=17-	=17-	=17-
1BB	-a	.	.	1D	.
.	.	2G/	ple-	.	.
*lig	*	*	*	*Xlig	*
*	*	*	*	*lig	*
*	*	*custos:d	*	*	*
1AA	ple-	0A	-na	1E	.
=18-	=18-	=18-	=18-	=18-	=18-
*custos:GG	*	*	*	*	*
1D	.	.	.	1F	.
*Xlig	*	*	*	*Xlig	*
!LO:PB:g=original	!	!LO:LB:g=original	!	!	!
2GG/	-na	2r	.	1G	.
*	*ij	*	*	*	*
2G\	gra-	2.d\	gra-	.	.
=19-	=19-	=19-	=19-	=19-	=19-
2D\	.	.	.	1F	-ti-
.	.	4d\	-ti-	.	.
1F	.	2A/	-a	.	.
.	.	2B\	ple-	1G,	-a
2E\	.	2c\	.	.	.
=20-	=20-	=20-	=20-	=20-	=20-
*	*	*	*	*lig	*
1D	.	1d	.	1A	ple-
4C/	.	0G	-na	1c	.
4D/	.	.	.	.	.
4E\	.	.	.	.	.
4F\	.	.	.	.	.
*	*	*	*	*Xlig	*
=21-	=21-	=21-	=21-	=21-	=21-
*	*	*	*	*lig	*
2G\	.	.	.	1B	.
2GG/	.	.	.	.	.
4AA/	.	2r	.	1A	.
4BB/	.	.	.	.	.
*	*	*	*ij	*	*
4C/	.	2c\	gra-	.	.
4D/	.	.	.	.	.
*	*	*	*	*Xlig	*
=22-	=22-	=22-	=22-	=22-	=22-
*	*	*	*	*lig	*
2E\	-ti-	2B\	-ti-	1G	.
2C/	-a	2c\	-a	.	.
0D	ple-	4B\	ple-	1F	.
.	.	4A/	.	.	.
.	.	4B\	.	.	.
.	.	4c\	.	.	.
*	*	*	*	*Xlig	*
=23-	=23-	=23-	=23-	=23-	=23-
*	*	*	*	*lig	*
.	.	2.d\	.	1A	-na
*	*	*custos:B	*	*	*
.	.	4c\	.	.	.
*	*	*	*	*custos:G	*
!	!	!LO:PB:g=original	!	!	!
0GG	-na	4B\	.	1G,	.
.	.	4A/	.	.	.
.	.	2.B\	.	.	.
*	*Xij	*	*	*Xlig	*
!	!	!	!	!LO:LB:g=original	!
=24-	=24-	=24-	=24-	=24-	=24-
*	*	*	*	*lig	*
.	.	.	.	1G	Do-
.	.	4A/	.	.	.
.	.	2G/	.	.	.
*custos:C	*	*	*	*	*
1r	.	1D	.	1d	.
*	*	*	*	*Xlig	*
!LO:LB:g=original	!	!	!	!	!
=25-	=25-	=25-	=25-	=25-	=25-
*	*	*	*	*lig	*
0C	Do-	1.G	-na	1e	.
*	*	*	*Xij	*	*
.	.	.	.	1c	.
.	.	1c\	Do-	.	.
*	*	*	*	*Xlig	*
=26-	=26-	=26-	=26-	=26-	=26-
*lig	*	*	*	*lig	*
1G	.	.	.	1d	.
.	.	2B\	-mi-	.	.
1A	.	1c	-nus	1c	.
*Xlig	*	*	*	*Xlig	*
=27-	=27-	=27-	=27-	=27-	=27-
*	*	*	*	*lig	*
2G\	-mi-	2d\	te-	1B	.
2E\	-nus	2e\	.	.	.
1F	.	2c\	.	1A	.
.	.	2d\	.	.	.
*	*	*	*	*Xlig	*
=28-	=28-	=28-	=28-	=28-	=28-
*	*	*	*	*lig	*
2E\	te-	2e\	.	1B	.
2D/	.	2f\	.	.	.
2C/	.	2e\	.	1c	.
!	!	!LO:TX:t=P:problem=cezura na 2. linii	!	!	!
1F\	.	2f,\	-cum	.	.
*	*	*	*	*Xlig	*
=29-	=29-	=29-	=29-	=29-	=29-
*	*	*custos:e	*	*	*
.	.	1f	Do-	1d	.
2D/	.	.	.	.	.
!	!	!LO:LB:g=original	!	!	!
1A	.	1e	-mi-	1c	-mi-
=30-	=30-	=30-	=30-	=30-	=30-
!	!	!	!	!LO:TX:t=P:problem=cezura na 3. linii	!
1D	-cum	2d\	-nus	1d,	-nus
.	.	2A/	te-	.	.
*	*	*	*	*lig	*
2r	.	4G/	.	1d	te-
.	.	4A/	.	.	.
2G\	Do-	2B\	.	.	.
=31-	=31-	=31-	=31-	=31-	=31-
2E\	-mi-	2G/	.	1c	.
2F\	-nus	2A/	.	.	.
*	*	*	*	*Xlig	*
*custos:C	*	*	*	*	*
*	*	*	*	*lig	*
1G	te-	4B\	.	1B	.
.	.	4c\	.	.	.
.	.	4d\	.	.	.
.	.	4B\	.	.	.
!LO:LB:g=original	!	!	!	!	!
=32-	=32-	=32-	=32-	=32-	=32-
*	*	*	*	*custos:G	*
2C/	.	2e\	.	1A	.
2D/	.	2d\	.	.	.
*lig	*	*	*	*Xlig	*
!	!	!	!	!LO:LB:g=original	!
*	*	*	*	*lig	*
1E	.	4c\	.	1G	.
.	.	4B\	.	.	.
.	.	4A/	.	.	.
.	.	4G/	.	.	.
=33-	=33-	=33-	=33-	=33-	=33-
*	*	*lig	*	*	*
1D	.	1A	.	1F	.
*Xlig	*	*	*	*Xlig	*
!	!	!	!	!LO:TX:t=P:problem=cezura na 1. linii	!
1GG	-cum	1B	.	1G,	-cum
*	*	*Xlig	*	*	*
=34-	=34-	=34-	=34-	=34-	=34-
*	*	*custos:c	*	*	*
2rC	.	1c	-cum	1G	Be-
1C	Be-	.	.	.	.
!	!	!LO:LB:g=original	!	!	!
.	.	2r	.	1G	-ne-
2C/	-ne-	1c\	Be-	.	.
=35-	=35-	=35-	=35-	=35-	=35-
*	*	*	*	*lig	*
2C/	-di-	.	.	1G	-di-
2C/	-cta	2c\	-ne-	.	.
0AA	tu	2c\	-di-	1A	.
.	.	2c\	-cta	.	.
*	*	*	*	*Xlig	*
=36-	=36-	=36-	=36-	=36-	=36-
*	*ij	*	*	*lig	*
.	.	1.A	tu	1E	.
1D	Be-	.	.	1F	.
*	*	*	*ij	*	*
.	.	2.d\	Be-	.	.
*	*	*	*	*Xlig	*
=37-	=37-	=37-	=37-	=37-	=37-
*	*	*	*	*lig	*
1GG	.	.	.	1G	.
.	.	4c\	.	.	.
.	.	2B\	.	.	.
2AA/	.	2A/	.	1F	.
2BB/	-ne-	2D/	.	.	.
*	*	*	*	*Xlig	*
=38-	=38-	=38-	=38-	=38-	=38-
*	*	*	*	*lig	*
1C	-di-	2A/	.	1E	.
.	.	2G/	-ne-	.	.
2D/	.	2F#X/	-di-	1D	.
2BB/	.	2G/	-cta	.	.
*	*	*	*	*Xlig	*
=39-	=39-	=39-	=39-	=39-	=39-
*	*	*	*	*lig	*
*custos:D	*	*	*	*	*
1AA	-cta	0A	tu	1E	.
!LO:LB:g=original	!	!	!	!	!
1D	tu	.	.	1F	.
*	*Xij	*	*Xij	*Xlig	*
=40-	=40-	=40-	=40-	=40-	=40-
0ryy	.	2rG	.	0ryy	.
!	!	!LO:TX:t=P:problem=skoordynowanie tej partii niepewne	!	!	!
.	.	2G/	Be-	.	.
*	*	*custos:A	*	*	*
.	.	1c	-ne-	.	.
=41-	=41-	=41-	=41-	=41-	=41-
*	*	*	*	*lig	*
2GG/	Be-	1ryy	.	1G	.
1C	-ne-	.	.	.	.
*	*	*	*	*custos:F	*
.	.	2ryy	.	1A	.
!	!	!LO:LB:g=original	!	!	!
2AA/	-di-	1A\	-di-	.	.
*	*	*	*	*Xlig	*
!	!	!	!	!LO:LB:g=original	!
=42-	=42-	=42-	=42-	=42-	=42-
*	*	*	*	*lig	*
1D	-cta	.	.	1F	-cta
.	.	2d\	.	.	.
!	!	!	!	!LO:TX:t=P:problem=cezura na 1. linii	!
2GG/	tu	2B\	.	1G,	.
2.C/	in	1c\	.	.	.
*	*	*	*	*Xlig	*
=43-	=43-	=43-	=43-	=43-	=43-
!	!	!	!	!LO:TX:t=P:problem=cezura na 1. linii	!
.	.	.	.	1G,	tu
4D/	.	.	.	.	.
2E\	mu-	2B\	.	.	.
!	!	!	!	!LO:TX:t=P:problem=cezura na 1. linii	!
2C/	-li-	1.c	.	1G,	in
1C/	-e-	.	.	.	.
=44-	=44-	=44-	=44-	=44-	=44-
*	*	*	*	*lig	*
.	.	.	.	1G	mu-
2GG/	-ri-	2B\	.	.	.
!LO:TX:t=P:problem=cezura na 1. linii	!	!	!	!	!
1D,	-bus	2A/	.	1A	.
.	.	2Fny/	-cta	.	.
*	*	*	*	*Xlig	*
=45-	=45-	=45-	=45-	=45-	=45-
*	*	*	*	*lig	*
1C	in	1G	tu	1c	.
2G\	mu-	2rG	.	1B	.
2E\	-li-	2G/	in	.	.
*	*	*	*	*Xlig	*
=46-	=46-	=46-	=46-	=46-	=46-
*lig	*	*	*	*	*
1F	-e-	2c\	mu-	1A	.
.	.	2A/	-li-	.	.
1E	.	1G	-e-	1c	-li-
*Xlig	*	*	*	*	*
=47-	=47-	=47-	=47-	=47-	=47-
*	*	*	*	*lig	*
2.D/	.	2.A/	.	1d	-e-
*custos:AA	*	*	*	*	*
4D/	-ri-	4G/	.	.	.
!LO:LB:g=original	!	!	!	!	!
1AA	-bus	4A/	.	1c	.
.	.	4B\	.	.	.
*	*	*custos:G	*	*	*
.	.	2c\	-ri-	.	.
*	*	*	*	*Xlig	*
!	!	!LO:LB:g=original	!	!	!
=48-	=48-	=48-	=48-	=48-	=48-
*	*	*	*	*lig	*
2rC	.	1G	-bus	1B	.
2GG/	in	.	.	.	.
*	*	*	*	*custos:A	*
2C/	mu-	2rG	.	1c	.
2E\	-li-	2G/	in	.	.
*	*	*	*	*Xlig	*
!	!	!	!	!LO:LB:g=original	!
=49-	=49-	=49-	=49-	=49-	=49-
*	*	*	*	*lig	*
2.D/	-e-	1.d	mu-	1A	.
4C/	.	.	.	.	.
4BB/	.	.	.	1B	.
4AA/	.	.	.	.	.
2GG/	.	2d\	-li-	.	.
*	*	*	*	*Xlig	*
=50-	=50-	=50-	=50-	=50-	=50-
1.D	.	1.d	-e-	1A	.
.	.	.	.	1A	-ri-
2D/	-ri-	2d\	-ri-	.	.
=51-	=51-	=51-	=51-	=51-	=51-
!LO:TX:t=P:problem=cezura pod 1. linią	!	!LO:TX:t=P:problem=cezura na 1. linii	!	!	!
2GG,/	-bus	2B,\	-bus	[0Gl;;	-bus.
*	*ij	*	*	*	*
2GG/	in	2B\	in	.	.
2C/	mu-	2e\	mu-	.	.
2BB/	-li-	2.d\	-li-	.	.
=52-	=52-	=52-	=52-	=52-	=52-
1C	-e-	.	.	0G_	.
.	.	4c\	.	.	.
.	.	1c	-e-	.	.
1C	-ri-	.	.	.	.
.	.	4B\	-ri-	.	.
.	.	4A\	.	.	.
=53-	=53-	=53-	=53-	=53-	=53-
0GGl;;	-bus	0Bl;;	-bus	0G]	.
*	*Xij	*	*	*	*
==	==	==	==	==	==
*-	*-	*-	*-	*-	*-
!!!system-decoration: [s1,s2,s3]
!!!RDF**kern: l = terminal long
!!!ENC: Marta Lawrence
!!!END: 2021-03-21
!!!ENC: Kamil Watkowski
!!!END: 2021-03-07
